packages/foundations/assets/icons/functional/images/technology/light_bulb_16.svg

<svg width="16" height="16" viewBox="0 0 16 16" fill="none" xmlns="http://www.w3.org/2000/svg">
<g clip-path="url(#clip0_187_597)">
<path fill-rule="evenodd" clip-rule="evenodd" d="M9.59961 11.9992H6.39961C5.95801 11.9992 5.59961 12.3568 5.59961 12.7992C5.59961 13.2416 5.95801 13.5992 6.39961 13.5992H6.80281C6.80281 13.5992 6.80281 13.6 6.80281 13.6008C6.80281 14.0432 7.16121 14.4008 7.60281 14.4008H8.39641C8.83801 14.4008 9.19641 14.0432 9.19641 13.6008C9.19641 13.6008 9.19641 13.6 9.19641 13.5992H9.59961C10.0412 13.5992 10.3996 13.2416 10.3996 12.7992C10.3996 12.3568 10.0412 11.9992 9.59961 11.9992ZM8.00041 1.5992C10.4268 1.5992 12.4004 3.5736 12.4004 5.9992C12.4004 7.5848 11.6796 8.6104 11.1532 9.3592C10.8588 9.7784 10.6044 10.14 10.594 10.428C10.578 10.8584 10.2244 11.1992 9.79401 11.1992H6.20601C5.77481 11.1992 5.42201 10.8584 5.40601 10.428C5.39561 10.14 5.14121 9.7776 4.84681 9.3592C4.32041 8.6112 3.59961 7.5848 3.59961 5.9992C3.59961 3.5736 5.57321 1.5992 8.00041 1.5992ZM8.00041 3.1992C6.45641 3.1992 5.20041 4.4552 5.20041 5.9992C5.20041 7.0792 5.68681 7.7704 6.15641 8.4392C6.41321 8.8056 6.67641 9.1792 6.84041 9.5992H9.15961C9.32361 9.1792 9.58681 8.8056 9.84441 8.4392C10.314 7.7704 10.8004 7.0792 10.8004 5.9992C10.8004 4.4552 9.54441 3.1992 8.00041 3.1992ZM7.22041 4.1568C7.62841 3.9856 8.09721 4.1744 8.26921 4.5808C8.44121 4.988 8.25161 5.4576 7.84441 5.6304C7.73241 5.6776 7.64601 5.7752 7.61321 5.892C7.51481 6.2448 7.19401 6.476 6.84361 6.476C6.77241 6.476 6.69961 6.4664 6.62761 6.4464C6.20281 6.328 5.95401 5.8864 6.07321 5.4608C6.23641 4.88 6.66441 4.3928 7.22041 4.1568Z" fill="#1A1C1F"/>
</g>
<defs>
<clipPath id="clip0_187_597">
<rect width="16" height="16" fill="white"/>
</clipPath>
</defs>
</svg>

<svg xmlns="http://www.w3.org/2000/svg" width="16" height="16" fill="none"><g clip-path="url(#a)"><path fill="#1A1C1F" fill-rule="evenodd" d="M9.6 12H6.4a.8.8 0 1 0 0 1.6h.403a.8.8 0 0 0 .8.8h.793a.8.8 0 0 0 .8-.8H9.6a.8.8 0 1 0 0-1.6M8 1.6c2.427 0 4.4 1.974 4.4 4.4 0 1.585-.72 2.61-1.247 3.36-.294.418-.549.78-.559 1.068a.8.8 0 0 1-.8.771H6.206a.8.8 0 0 1-.8-.771c-.01-.288-.265-.65-.56-1.069C4.32 8.611 3.6 7.585 3.6 6c0-2.425 1.973-4.4 4.4-4.4m0 1.6A2.803 2.803 0 0 0 5.2 6c0 1.08.487 1.77.956 2.44.257.366.52.74.684 1.16h2.32c.164-.42.427-.794.684-1.16.47-.67.956-1.36.956-2.44 0-1.545-1.256-2.8-2.8-2.8m-.78.957a.8.8 0 0 1 .624 1.473.4.4 0 0 0-.23.262.8.8 0 1 1-1.54-.431A2.02 2.02 0 0 1 7.22 4.157" clip-rule="evenodd"/></g><defs><clipPath id="a"><path fill="#fff" d="M0 0h16v16H0z"/></clipPath></defs></svg>
